X: 36
T: Hic iocundus sumit mundus
N: Derived from Duf3080-Hic_iocundus_sumit_mundus.krn
C: Guillaume Du Fay
%%abc-version 2.0
%%abcx-abcm2ps-target-version 5.9.1 (29 Sep 2008)
%%abc-creator hum2abc beta
%%abcx-conversion-date 2019/02/16 20:31:47
%%abc-edited-by Alejandro Planchart
%%abc-edited-by Alejandro Planchart
%%abcx-initial-encoding-date 2012/08/01/
%%humdrum-veritas 2987767165
%%humdrum-veritas-data 2967497061
%%linebreak <none>
%%barnumbers 0
L: 1/4
M: 3/1
Q: 1/2=120
V: 1 clef=treble
V: 2 clef=treble-8
V: 3 clef=treble-8
K: C
[V:1] z12 | 
[V:2] z12 | 
[V:3] z12 | 
[V:1] z4z4c4 | 
[V:2] z4z4g4 | 
[V:3] z4z4c4 | 
[V:1] c8B4 | 
[V:2] g4g8 | 
[V:3] c6d2e4 | 
[V:1] A4d6c2 | 
[V:2] d6c2_B4 | 
[V:3] f8d4 | 
[V:1] c4B6A2 | 
[V:2] A4G8 | 
[V:3] e2f2g4d4 | 
[V:1] A4G2E2F4 | 
[V:2] e6g2f2e2 | 
[V:3] c8d4 | 
[V:1] E4D4z4 | 
[V:2] g12- | 
[V:3] c4G8 | 
[V:1] E4E6F2 | 
[V:2] g12 | 
[V:3] c12 | 
[V:1] G4c6B2 | 
[V:2] e8A4 | 
[V:3] z4z4c4 | 
[V:1] B4A4G2F2 | 
[V:2] G4F4G4 | 
[V:3] d12 | 
[V:1] E4D2G2^F2E2 | 
[V:2] A2G4d2c2=B2 | 
[V:3] c4B2G2A4 | 
[V:1] G4z4A2B2 | 
[V:2] d4e6d2 | 
[V:3] G4c8 | 
[V:1] G4^F6E2 | 
[V:2] d4c6=B2 | 
[V:3] B4A8 | 
[V:1] G4d8 | 
[V:2] d4z4g4 | 
[V:3] G8B4 | 
[V:1] c4_B6A2 | 
[V:2] a4f8 | 
[V:3] A4d8 | 
[V:1] A4A2_B2G2F2 | 
[V:2] e4d8 | 
[V:3] c4_B8 | 
[V:1] !fermata!A12 | 
[V:2] !fermata!e4z4e4 | 
[V:3] !fermata!A12 | 
[V:1] z4z4A2B2 | 
[V:2] f8d4 | 
[V:3] d12 | 
[V:1] c6d2c2B2 | 
[V:2] A8c4 | 
[V:3] e12 | 
[V:1] d8d4 | 
[V:2] G12 | 
[V:3] d8g4- | 
[V:1] e6d2d4 | 
[V:2] c4d4=B4 | 
[V:3] g4f8 | 
[V:1] c4B6A2 | 
[V:2] c4G8 | 
[V:3] e4d8 | 
[V:1] c4z4c4 | 
[V:2] g8e2f2 | 
[V:3] c12 | 
[V:1] B4A4A2G2 | 
[V:2] g4f2e2c4 | 
[V:3] z4z4A4 | 
[V:1] G8E4 | 
[V:2] G4z4A4 | 
[V:3] B4c8 | 
[V:1] D4A8 | 
[V:2] _B4A8 | 
[V:3] G4F8 | 
[V:1] G4A2c4B2 | 
[V:2] d4e4d4 | 
[V:3] G4c4d4 | 
[V:1] G6A2^F2E2 | 
[V:2] d4^c8 | 
[V:3] B4A8 | 
[V:1] G12 |]  
[V:2] d12 |]  
[V:3] G12 |]  
